!!!!SEGMENT: pl-kk--kk-i-6--026-004_palestrina-giovanni-pierluigi-da--missa-marcelli-papae-sanctus.krn
!!!cenid: 16xx:992
!!!COM: Palestrina, Giovanni Pierluigi da
!!!COM-rismID: pe1904
!!!CDT: ~1525-1594/02/02
!!!CNT: Italian
!!!OPR: Missa Marcelli Papae
!!!OTL: Sanctus
!!!OMV: 004
!!!PDT:
!!!AGN: Sacred; Mass
!!!SMS-siglum: PL-Kk
!!!SMS-shelfmark: Kk.I.6
!!!SMS-shelfwork: 026-004 M
!!!SMS-variant:
!!!SMS-altvar:
!!!NIFC-rismSourceID: 1001135513
!!!NIFC-rismChildID: 1001136041
!!!NIFC-islandoraID: pl-kk:1634
!!!URL-pdf-islandora: https://repozytorium.nifc.pl/islandora/object/pl-kk%3A1634/datastream/PDF/view
!!!URL-scan: https://polish.musicsources.pl/pl/lokalizacje/galeria/rekopisy/6133 @EN{Scan on Polish Music Sources Website} @PL{Skany w portalu Dziedzictwo Muzyki Polskiej w otwartym dostępie}
!!!IIIF:
!!!ONB-nifc: UWAGA: C (skan 0028-0032, s. 52-61), T (skan 0131-0136, s. 66-76), B (skan 0241-0246, s. 65-74) Części Mszy: 1. Kyrie, 2. Et in terra, 3. Patrem, 4. Sanctus, 5. Agnus Dei
!!!AIN: 1 empty 1 tenor 1 vox
!!!key:
**kern	**text	**kern	**text	**kern	**text
*part3	*part3	*part2	*part2	*part1	*part1
*staff3	*staff3	*staff2	*staff2	*staff1	*staff1
*Iempty	*	*Itenor	*	*Ivox	*
*I"Baſsus.	*	*I"Tenor.	*	*I"Cantus.	*
*I'B	*	*I'T	*	*I'S	*
*clefF4	*	*clefC3	*	*clefC4	*
*k[b-]	*	*k[b-]	*	*k[b-]	*
*F:	*	*F:	*	*F:	*
*M2/1	*	*M2/1	*	*M2/1	*
*met(C|)	*	*met(C|)	*	*met(C|)	*
=1-	=1-	=1-	=1-	=1-	=1-
!LO:TX:t=P:global:problem=brak kresek taktowych	!	!	!	!	!
!LO:TX:t=P:problem=4/middle or right&colon; global	!	!LO:TX:t=P:problem=2\, 4\middle&colon; global	!	!	!
!LO:TX:t=P:problem=2\, 4\middle&colon; global	!	!LO:TX:t=P:problem=4/middle or right&colon; global	!	!LO:TX:t=P:problem=2\, 4\, 8\middle&colon; global	!
!LO:TX:a:t=P:problem=inicjał "S" na pięciolinii przed kluczem	!	!LO:TX:a:t=P:problem=inicjał "S" na pięciolinii przed kluczem	!	!LO:TX:a:t=P:problem=inicjał "S" na pięciolinii przed kluczem	!
!LO:TX:a:t=P:problem=przekreślona nuta pod pauzą w źródle	!	!	!	!	!
0r	.	0r	.	0G	SAn-
=2-	=2-	=2-	=2-	=2-	=2-
!	!	!	!	!LO:TX:t=P:problem=kreska pseudotaktowa	!
0C	SAn-	1r	.	1G	-ctus
.	.	0c	SAn-	2.c\	.
.	.	.	.	4B-\	San-
=3-	=3-	=3-	=3-	=3-	=3-
1C	-ctus	.	.	2A/	.
!	!	!	!	!LO:TX:t=P:problem=kreska pseudotaktowa	!
.	.	.	.	2G/	.
1.F	San-	1c	-ctus	1.A	.
=4-	=4-	=4-	=4-	=4-	=4-
.	.	0f	San-	.	.
2E\	.	.	.	2G/	.
!	!	!	!	!LO:TX:t=P:problem=kreska pseudotaktowa	!
1D	.	.	.	1F	.
=5-	=5-	=5-	=5-	=5-	=5-
1C	-ctus	1e	-ctus	2G/	-ctus
.	.	.	.	1C	San-
*	*ij	*	*	*	*
0FF	San-	2r	.	.	.
.	.	1c/	San-	2C/	-ctus
=6-	=6-	=6-	=6-	=6-	=6-
*	*	*	*	*lig	*
.	.	.	.	1C	San-
.	.	2c/	-ct(us)	.	.
*	*	*lig	*	*	*
1FF	-ctus	1c	San-	1.F	.
*	*Xij	*	*	*Xlig	*
=7-	=7-	=7-	=7-	=7-	=7-
1.BB-	San-	1.d	.	.	.
*	*	*	*	*custos:D	*
!	!	!	!	!LO:TX:t=P:problem=kreska pseudotaktowa	!
.	.	.	.	2E/	.
!	!	!	!	!LO:LB:g=original	!
.	.	.	.	2D/	.
*	*	*Xlig	*	*	*
2AA/	.	2c/	-ctus	2.F/	.
=8-	=8-	=8-	=8-	=8-	=8-
1GG	.	2.B-/	San-	.	.
.	.	.	.	8E/L	.
.	.	.	.	8D/J	.
!	!	!	!	!LO:TX:t=P:problem=kreska pseudotaktowa	!
.	.	.	.	2E/	.
.	.	4c/	.	.	.
*custos:C	*	*	*	*	*
1FF	-ctus	2d\	.	1F	-ctus
*	*	*custos:B-	*	*	*
.	.	2c/	.	.	.
!LO:LB:g=original	!	!LO:LB:g=original	!	!	!
=9-	=9-	=9-	=9-	=9-	=9-
0r	.	2.B-/	.	1.G	Do-
.	.	4c/	.	.	.
.	.	1d	.	.	.
.	.	.	.	2G/	-mi-
=10-	=10-	=10-	=10-	=10-	=10-
!	!	!	!	!LO:TX:t=P:problem=kreska pseudotaktowa	!
1.C	Do-	0c	-ctus	1G	-nus
.	.	.	.	2.c\	De-
2C/	-mi-	.	.	.	.
.	.	.	.	4B-\	.
=11-	=11-	=11-	=11-	=11-	=11-
1C	-nus	0c	Do-	2A/	.
!	!	!	!	!LO:TX:t=P:problem=kreska pseudotaktowa	!
.	.	.	.	2G/	-us
1.F	De-	.	.	1.A	Sab-
=12-	=12-	=12-	=12-	=12-	=12-
.	.	0f	-mi-	.	.
2E\	.	.	.	2G/	-ba-
!	!	!	!	!LO:TX:t=P:problem=kreska pseudotaktowa	!
1D	.	.	.	1F	-oth
=13-	=13-	=13-	=13-	=13-	=13-
1C	-us	1e	-nus	1.C	Do-
1.FF	D(o-	2r	.	.	.
.	.	1c/	Do-	2C/	-mi-
=14-	=14-	=14-	=14-	=14-	=14-
*	*	*	*	*custos:F	*
!	!	!	!	!LO:TX:t=P:problem=kreska pseudotaktowa	!
.	.	.	.	1C	-nus
2FF/	-mi)-	2c/	-mi-	.	.
!	!	!	!	!LO:LB:g=original	!
1FF	-nus	1c	-nus	1.F	De-
=15-	=15-	=15-	=15-	=15-	=15-
1.BB-	De-	1.d	De-	.	.
!	!	!	!	!LO:TX:t=P:problem=kreska pseudotaktowa	!
.	.	.	.	2E/	-us
.	.	.	.	2D/	Sab-
2AA/	.	2c/	-us	2.F/	.
=16-	=16-	=16-	=16-	=16-	=16-
1GG	.	2.B-/	Sab-	.	.
.	.	.	.	8E/L	.
.	.	.	.	8D/J	.
!	!	!	!	!LO:TX:t=P:problem=kreska pseudotaktowa	!
.	.	.	.	2E/	-ba-
.	.	4c/	.	.	.
1FF	-us	2d\	.	1F	-oth
.	.	4c/	.	.	.
*	*	*custos:c	*	*	*
.	.	4B-/	.	.	.
!	!	!LO:PB:g=original	!	!	!
=17-	=17-	=17-	=17-	=17-	=17-
1.F	Do-	2.c/	.	2r	.
.	.	.	.	1A	D(o-
.	.	4B-/	.	.	.
.	.	4A/	.	.	.
.	.	4B-/	.	.	.
2F\	-mi-	1c/	.	2A/	-mi)-
=18-	=18-	=18-	=18-	=18-	=18-
*custos:D	*	*	*	*	*
!	!	!	!	!LO:TX:t=P:problem=kreska pseudotaktowa	!
1F	-nus	.	.	1A	-nus
.	.	2c/	.	.	.
!LO:LB:g=original	!	!	!	!	!
*	*	*lig	*	*	*
2D/	De-	1d	.	2F/	De-
2BB-/	-us	.	.	2.B-\	-us
=19-	=19-	=19-	=19-	=19-	=19-
1F	Sab-	1c	.	.	.
.	.	.	.	8A/L	.
.	.	.	.	8G/J	.
.	.	.	.	2A/	Sab-
*	*	*Xlig	*	*	*
1BB-	-ba-	1d	-ba-	1B-	-ba-
=20-	=20-	=20-	=20-	=20-	=20-
!LO:TX:t=P:problem=fermaty bez kropek	!	!LO:TX:t=P:problem=fermaty bez kropek	!	!LO:TX:t=P:problem=fermaty bez kropek	!
0FFl;;	-oth	0cl;;	-oth.	0Al;;	-oth
!	!	!LO:LB:g=original	!	!LO:LB:g=original	!
=21||	=21||	=21||	=21||	=21||	=21||
*clefF4	*	*clefC3	*	*clefC4	*
*k[b-]	*	*k[b-]	*	*k[b-]	*
*M2/1	*	*M2/1	*	*M2/1	*
*met(C|)	*	*met(C|)	*	*met(C|)	*
!LO:TX:a:t=P:problem=inicjał "P" na pięciolinii przed kluczem	!	!LO:TX:a:t=P:problem=inicjał "P" na pięciolinii przed kluczem	!	!LO:TX:a:t=P:problem=inicjał "P" na pięciolinii przed kluczem	!
!LO:TX:t=P:problem=odnośnik do innego głosu pod metrum (4 nuty)	!	!LO:TX:t=P:problem=w źródle najpierw klucz, potem bemol, a następnie metrum	!	!LO:TX:t=P:problem=w źródle najpierw klucz, potem bemol, a następnie metrum	!
!LO:TX:t=P:problem=w źródle najpierw klucz, potem bemol, a następnie metrum	!	!	!	!	!
00r	.	1r	.	00r	.
.	.	0c	Ple-	.	.
=22-	=22-	=22-	=22-	=22-	=22-
.	.	.	.	.	.
.	.	.	.	.	.
.	.	1d	-ni	.	.
=23-	=23-	=23-	=23-	=23-	=23-
1r	.	1B-	ſunt	0G	Ple-
0C	Ple-	0c	Cae-	.	.
=24-	=24-	=24-	=24-	=24-	=24-
.	.	.	.	1A	-ni
1D	-ni	1A	-li	1F	ſunt
=25-	=25-	=25-	=25-	=25-	=25-
1BB-	ſunt	2.B-/	et	2G/	Cae-
!	!	!	!	!LO:TX:t=P:problem=kreska pseudotaktowa	!
.	.	.	.	2F/	-li
.	.	4A/	ter-	.	.
1C	Cae-	1G	-ra	2F/	et
.	.	.	.	2E/	ter-
=26-	=26-	=26-	=26-	=26-	=26-
!	!	!	!	!LO:TX:t=P:problem=kreska pseudotaktowa	!
1FF	-li	2r	.	1F	-ra
.	.	1c	glo-	.	.
1F	et	.	.	1A	glo-
.	.	1d\	-ri-	.	.
=27-	=27-	=27-	=27-	=27-	=27-
*custos:E	*	*	*	*	*
1G	ter-	.	.	1B-	-ri-
.	.	2B-/	-a	.	.
!LO:LB:g=original	!	!	!	!	!
1E	-ra	2.c/	tu-	1G	-a
*	*	*custos:A	*	*	*
.	.	4B-/	.	.	.
!	!	!LO:LB:g=original	!	!	!
=28-	=28-	=28-	=28-	=28-	=28-
1F	glo-	4A/	.	2A/	tu-
.	.	4G/	.	.	.
!	!	!	!	!LO:TX:t=P:problem=kreska pseudotaktowa	!
.	.	2A/	.	2F/	-a
!LO:N:vis=2.	!	!	!	!	!
2C/	-ri-	2G/	-a	2G/	O-
2C/	-a	2c/	glo-	2G/	-san-
=29-	=29-	=29-	=29-	=29-	=29-
*	*	*	*	*custos:F	*
2D/	tu-	2A/	-ri-	1F	-na
2BB-/	-a	2d\	-a	.	.
!	!	!	!	!LO:LB:g=original	!
2C/	O-	2c/	tu-	2r	.
2D/	.	2A/	.	2F/	glo-
=30-	=30-	=30-	=30-	=30-	=30-
1C	-San-	1c	-a	2G/	-ri-
!	!	!	!	!LO:TX:t=P:problem=kreska pseudotaktowa	!
.	.	.	.	2E/	-a
2FF/	-na	2r	.	2F/	tu-
!	!	!	!	!LO:TX:t=P:problem=kreska pseudotaktowa	!
2F\	glo-	2c/	O-	2A/	-a
=31-	=31-	=31-	=31-	=31-	=31-
2G\	-ri-	2B-/	-san-	2G/	O-
2E\	-a	2G/	-na	2c\	-san-
2F\	tu-	2c/	in	2A/	-na
!	!	!	!	!LO:TX:t=P:problem=kreska pseudotaktowa	!
2D/	-a	2d\	ex-	2B-\	in
=32-	=32-	=32-	=32-	=32-	=32-
!	!	!LO:TX:t=P:problem=# above	!	!	!
2C/	O-	2e#\	-cel-	2G/	ex-
2C/	-san-	2c/	.	2A/	-cel-
!LO:PB:g=original	!	!	!	!	!
2BB-/	-na	2d\	-ſis	2B-\	-ſis
*	*	*	*ij	*	*
2FF/	in	2c/	in	2A/	in
=33-	=33-	=33-	=33-	=33-	=33-
*	*	*	*	*lig	*
1C	ex-	0c	ex-	1G	ex-
1FF	-cel-	.	.	1A	.
*	*	*	*	*Xlig	*
=34-	=34-	=34-	=34-	=34-	=34-
0BB-	-sis	0d	-cel-	0B-	-cel-
=35-	=35-	=35-	=35-	=35-	=35-
!LO:TX:t=P:problem=fermaty bez kropek	!	!LO:TX:t=P:problem=fermaty bez kropek	!	!LO:TX:t=P:problem=fermaty bez kropek	!
0FFl;;	.	0cl;;	-ſis	0Al;;	-sis.
*	*	*	*Xij	*	*
!	!	!LO:LB:g=original	!	!LO:PB:g=original	!
=36||	=36||	=36||	=36||	=36||	=36||
*clefF3	*	*clefC4	*	*clefC4	*
*k[b-]	*	*k[b-]	*	*k[b-]	*
*M2/1	*	*M2/1	*	*M2/1	*
*met(C|)	*	*met(C|)	*	*met(C|)	*
!LO:TX:t=P:bemole:problem=BB-, B- (jeden nad drugim)	!	!LO:TX:t=P:problem=w źródle najpierw klucz, potem bemol, a następnie metrum	!	!LO:TX:t=P:problem=w źródle najpierw klucz, potem bemol, a następnie metrum	!
!LO:TX:a:t=P:problem=inicjał "B" na pięciolinii przed kluczem	!	!LO:TX:a:t=P:problem=inicjał "B" na pięciolinii przed kluczem	!	!LO:TX:a:t=P:problem=inicjał "B" na pięciolinii przed kluczem	!
!LO:TX:t=P:problem=w źródle najpierw klucz, potem bemole, a następnie metrum	!	!	!	!	!
00r	.	00r	.	0c	Be-
=37-	=37-	=37-	=37-	=37-	=37-
.	.	.	.	1B-	-ne-
.	.	.	.	2.c\	-di-
.	.	.	.	4B-\	.
=38-	=38-	=38-	=38-	=38-	=38-
!	!	!LO:N:vis=0	!	!	!
1r	.	1r	.	4G/	.
.	.	.	.	4A/	.
.	.	.	.	2B-\	.
*	*	*	*	*lig	*
0C	Be-	0c	Be-	1A	.
=39-	=39-	=39-	=39-	=39-	=39-
.	.	.	.	1G	.
*	*	*	*	*Xlig	*
1F	-ne-	1B-	-ne-	2.A/	.
.	.	.	.	4G/	.
=40-	=40-	=40-	=40-	=40-	=40-
1D	-di-	2.c\	-di-	1F	.
.	.	4B-\	.	.	.
2.C/	.	4G/	.	1G	-ctus
.	.	4A/	.	.	.
.	.	2B-\	.	.	.
*custos:E	*	*	*	*	*
4D/	.	.	.	.	.
!LO:LB:g=original	!	!	!	!	!
=41-	=41-	=41-	=41-	=41-	=41-
*	*	*lig	*	*	*
4E/	.	1A	.	0r	.
4F/	.	.	.	.	.
2.G\	.	.	.	.	.
.	.	1G	.	.	.
4F/	.	.	.	.	.
1F/	.	.	.	.	.
*	*	*Xlig	*	*	*
=42-	=42-	=42-	=42-	=42-	=42-
.	.	1.A	.	1r	.
2E/	.	.	.	.	.
*	*	*	*	*	*ij
1.F	.	.	.	0c	Be-
.	.	2G/	.	.	.
=43-	=43-	=43-	=43-	=43-	=43-
.	.	2F/	-ctus	.	.
*	*	*	*ij	*	*
2E/	.	1f	Be-	.	.
1D	.	.	.	1B-	-ne-
.	.	4e\	.	.	.
*	*	*custos:e	*	*	*
.	.	4d\	.	.	.
!	!	!LO:LB:g=original	!	!	!
=44-	=44-	=44-	=44-	=44-	=44-
1C	-ctus	2e\	.	2.c\	-di-
.	.	2.d\	.	.	.
*	*	*	*	*custos:G	*
.	.	.	.	4B-\	.
!	!	!	!	!LO:LB:g=original	!
00r	.	.	.	4G/	.
.	.	4c\	.	4A/	.
.	.	1c\	ne-	2.B-\	.
=45-	=45-	=45-	=45-	=45-	=45-
.	.	.	.	.	.
.	.	.	.	4A/	.
.	.	4B-\	.	4A/	.
.	.	4A/	.	8G/L	.
!	!	!	!	!LO:TX:t=P:problem=kreska pseudotaktowa	!
.	.	.	.	8F/J	.
.	.	1B-	.	4E/	.
.	.	.	.	4F/	.
.	.	.	.	2.G/	.
=46-	=46-	=46-	=46-	=46-	=46-
.	.	1A	-di-	.	.
.	.	.	.	4F/	.
.	.	.	.	4D/	.
!	!	!	!	!LO:TX:t=P:problem=kreska pseudotaktowa	!
.	.	.	.	4E/	.
0c	Be-	1G	-ctus	1F	.
=47-	=47-	=47-	=47-	=47-	=47-
*	*	*	*Xij	*lig	*
.	.	2r	.	1C	.
.	.	1G	Be-	.	.
1B-	-ne-	.	.	1G	.
.	.	2A/	-ne-	.	.
*	*	*	*	*Xlig	*
=48-	=48-	=48-	=48-	=48-	=48-
2.c\	-di-	4B-\	.	1C	-ctus
*	*	*	*	*	*Xij
.	.	4c\	.	.	.
.	.	2.d\	.	.	.
4B-\	.	.	.	.	.
4G\	.	.	.	0r	.
4A\	.	4c\	.	.	.
2B-\	.	1c\	-di-	.	.
=49-	=49-	=49-	=49-	=49-	=49-
*custos:G	*	*	*	*	*
1A	.	.	.	.	.
.	.	2B-\	.	.	.
!LO:LB:g=original	!	!	!	!	!
1G	.	1c	-ctus	1r	.
=50-	=50-	=50-	=50-	=50-	=50-
*	*	*custos:F	*	*	*
1C	-ctus	00r	.	2r	.
.	.	.	.	2G/	qui
2r	.	.	.	4A/	Ve-
.	.	.	.	4G/	.
2F/	qui	.	.	4A/	.
.	.	.	.	4B-\	.
=51-	=51-	=51-	=51-	=51-	=51-
4A\	Ve-	.	.	2c\	.
4G\	.	.	.	.	.
*	*	*	*	*custos:A	*
!	!	!	!	!LO:TX:t=P:problem=cezura na 2. linii	!
4A\	.	.	.	2F,/	.
4B-\	.	.	.	.	.
!	!	!	!	!LO:LB:g=original	!
2c\	.	.	.	1A	.
2F/	.	.	.	.	.
!	!	!LO:LB:g=original	!	!	!
=52-	=52-	=52-	=52-	=52-	=52-
*lig	*	*	*	*	*
1B-	.	2r	.	2.G/	.
.	.	2F/	qui	.	.
.	.	.	.	4F/	.
1A	.	4G/	Ve-	2D/	.
.	.	4F/	.	.	.
.	.	4G/	.	2F/	.
.	.	4A/	.	.	.
*Xlig	*	*	*	*	*
=53-	=53-	=53-	=53-	=53-	=53-
!LO:TX:t=P:problem=cezura pod 1. linią	!	!	!	!	!
2G,\	-nit	2B-\	.	1C	-nit
2C/	qui	2F/	.	.	.
4D/	Ve-	2A/	.	0r	.
4C/	.	.	.	.	.
4D/	.	2B-\	.	.	.
4E/	.	.	.	.	.
=54-	=54-	=54-	=54-	=54-	=54-
2F/	.	1A	-nit	.	.
2D/	.	.	.	.	.
*lig	*	*	*	*	*
1F	.	1r	.	2r	.
.	.	.	.	2F/	qui
=55-	=55-	=55-	=55-	=55-	=55-
*custos:D	*	*	*	*	*
1E	.	2r	.	4G/	Ve-
.	.	.	.	4F/	.
*	*	*	*ij	*	*
.	.	2F/	qui	4G/	.
.	.	.	.	4A/	.
*Xlig	*	*	*	*	*
!LO:LB:g=original	!	!	!	!	!
1D	-nit	4G/	Ve-	2B-\	.
.	.	4F/	.	.	.
!	!	!	!	!LO:TX:t=P:problem=kreska pseudotaktowa	!
.	.	4G/	.	2A/	.
.	.	4A/	.	.	.
=56-	=56-	=56-	=56-	=56-	=56-
1r	.	2B-\	.	2.B-\	.
!	!	!LO:TX:t=P:problem=skreślony fragment	!	!	!
.	.	2A/	.	.	.
.	.	.	.	4A/	.
2r	.	2.B-\	.	2G/	.
2F/	qui	.	.	2D/	-nit
.	.	4A/	.	.	.
!	!	!LO:PB:g=original	!	!	!
=57-	=57-	=57-	=57-	=57-	=57-
4G\	Ve-	2G/	.	0d	qui
4F/	.	.	.	.	.
4G\	.	2D/	.	.	.
4A\	.	.	.	.	.
2B-\	.	00d	-nit	.	.
*	*	*	*Xij	*	*
2A\	.	.	.	.	.
=58-	=58-	=58-	=58-	=58-	=58-
2.B-\	.	.	.	1.G	Ve-
4A\	.	.	.	.	.
2G\	.	.	.	.	.
*	*	*	*	*custos:B-	*
2F/	.	.	.	2A/	.
!	!	!	!	!LO:LB:g=original	!
=59-	=59-	=59-	=59-	=59-	=59-
1G	.	.	.	2.B-\	.
.	.	.	.	8A/L	.
.	.	.	.	8G/J	.
!LO:TX:t=P:problem=cezura pod 1. linią	!	!	!	!	!
2D,/	-nit	2r	.	1A	.
2D/	qui	2c\	in	.	.
=60-	=60-	=60-	=60-	=60-	=60-
4E/	Ve-	2.B-\	no-	1G	-nit
4D/	.	.	.	.	.
4E/	.	.	.	.	.
4F/	.	4G/	-mi-	.	.
*custos:D	*	*	*	*	*
1G	.	2A/	.	0r	.
.	.	2B-\	.	.	.
!LO:LB:g=original	!	!	!	!	!
=61-	=61-	=61-	=61-	=61-	=61-
1D	-nit	2c\	-ne	.	.
.	.	2A/	Do-	.	.
00r	.	2.G/	.	2r	.
.	.	.	.	2c\	in
.	.	8F/L	.	.	.
.	.	8E/J	.	.	.
=62-	=62-	=62-	=62-	=62-	=62-
.	.	2D/	.	2.B-\	no-
.	.	2.d\	.	.	.
.	.	.	.	4G/	-mi-
.	.	.	.	2A/	-ne
*	*	*custos:c	*	*	*
.	.	4c\	.	.	.
!	!	!LO:LB:g=original	!	!	!
.	.	1c\	.	2B-\	.
=63-	=63-	=63-	=63-	=63-	=63-
.	.	.	.	2c\	Do-
.	.	2B-\	.	2A/	-mi-
0r	.	1A	-mi-	1G	-ni
=64-	=64-	=64-	=64-	=64-	=64-
.	.	1G	-ni	2r	.
.	.	.	.	2F/	in
2r	.	1r	.	2.E/	no-
2c\	in	.	.	.	.
.	.	.	.	4C/	-mi-
=65-	=65-	=65-	=65-	=65-	=65-
2.B-\	no-	2r	.	2D/	-ne
*	*	*	*	*custos:F	*
.	.	2f\	O-	2E/	Do-
4G\	-mi-	.	.	.	.
!	!	!	!	!LO:LB:g=original	!
2A\	-ne	2.e\	-san-	2F/	-mi-
2B-\	Do-	.	.	2D/	.
.	.	4c\	-na	.	.
=66-	=66-	=66-	=66-	=66-	=66-
2c\	-mi-	2d\	in	1C	-ni
2A\	-ni	2e\	ex-	.	.
1G	O-	2f\	-cel-	0r	.
.	.	2d\	.	.	.
=67-	=67-	=67-	=67-	=67-	=67-
2F/	-san-	1c	-sis	.	.
2G\	-na	.	.	.	.
4A\	in	2r	.	2r	.
4G\	ex-	.	.	.	.
4A\	-cel-	2c\	O-	2F/	O-
4B-\	.	.	.	.	.
=68-	=68-	=68-	=68-	=68-	=68-
1c	-ſis	2.B-\	-san-	2.E/	-san-
.	.	4G/	-na	4C/	-na
0r	.	2A/	in	2D/	in
*	*	*custos:c	*	*	*
.	.	2B-\	ex-	2E/	ex-
!	!	!LO:LB:g=original	!	!	!
=69-	=69-	=69-	=69-	=69-	=69-
.	.	2c\	-cel-	2F/	-cel-
!	!	!	!	!LO:TX:t=P:problem=kreska pseudotaktowa	!
.	.	2A/	-sis	2D/	.
*custos:G	*	*	*	*	*
!	!	!LO:TX:t=P:problem=cezura na 1. linii	!	!	!
1r	.	2G,/	.	2C/	-sis
*	*	*	*ij	*	*
.	.	2d\	O-	2c\	O-
!LO:LB:g=original	!	!	!	!	!
=70-	=70-	=70-	=70-	=70-	=70-
2r	.	2f\	-san-	2.B-\	-san-
2G\	O-	2f\	-na	.	.
.	.	.	.	4G/	.
2.F/	-san-	1e	in	2A/	-na
.	.	.	.	2.d\	in
4D/	-na	.	.	.	.
=71-	=71-	=71-	=71-	=71-	=71-
2E/	in	1d	ex-	.	.
.	.	.	.	4c\	ex-
2C/	ex-	.	.	1c	-cel-
0G	-cel-	1d	-cel-	.	.
!	!	!	!	!LO:TX:t=P:problem=w źródle ♮ dopisany ołówkiem nad nutą	!
.	.	.	.	4Bny\	.
*	*	*	*	*custos:B	*
.	.	.	.	4A/	.
!	!	!	!	!LO:LB:g=original	!
=72-	=72-	=72-	=72-	=72-	=72-
!	!	!LO:TX:t=P:problem=fermaty bez kropek	!	!LO:TX:t=P:problem=w źródle ♮ dopisany ołówkiem	!
.	.	[0cl;;	-sis	1Bny	.
*	*	*	*Xij	*	*
2.A\	.	.	.	2c\	-ſis
.	.	.	.	1F/	in
4G\	.	.	.	.	.
=73-	=73-	=73-	=73-	=73-	=73-
2F/	.	0c_	.	.	.
2E/	.	.	.	2G/	ex-
1F	.	.	.	1A	-cel-
=74-	=74-	=74-	=74-	=74-	=74-
1F	-ſis	0c]	.	1A	-sis.
!LO:TX:t=P:problem=dopisany odnośnik do partii S po kresce	!	!	!	!LO:TX:t=P:problem=fermaty bez kropek	!
!LO:TX:t=P:problem=górna fermata bez kropki	!	!	!	!	!
1Cl;;	.	.	.	1Gl;;	.
==	==	==	==	==	==
*-	*-	*-	*-	*-	*-
!!!system-decoration: [(s1,s2,s3)]
!!!RDF**kern: > = above
!!!RDF**kern: < = below
!!!RDF**kern: l = terminal long
!!!EED: Mateusz Mrugas
!!!EEV: 2021-03-23
!!!ENC: Kamil Watkowski
!!!END: 2021-03-08
!!!YEC: Copyright 2022 Narodowy Instytut Fryderyka Chopina (https://polishscores.org)
!!!YEM: License CC-BY-4.0 (https://creativecommons.org/licenses/by/4.0)
